X: 04042
T: JILL'S JIG
C: Bob McQuillen 20 Jan 79
B: Bob's Note Book 04 #42
R: jig
Z: 2020 John Chambers <jc:trillian.mit.edu>
M: 6/8
L: 1/8
K: D
FG \
| AFA BGB | A2D D2f | fgf ede | f2d AFG |\
| AFA BGB | AFA dfg | afd efe | dAF D :|
|: ag \
| faa eaa | f2d dcB | Ade fdf | afd eag |\
| faa eaa | fdd dcB | Add cBc | edd d :|
%%begintext align
%% With love to Jill Newton,
%% great applejack fiddler;
%% _Thanks_so_much_, Jill, for all
%% your hard work.
%%endtext

%%sep 1 1 500

%%sep 1 1 500

